X: 636
T: Elbet Gönüllerde Sabah Olacak
C: Sadettin Kaynak
O: Turkey
F: http://compmusic.upf.edu/node/140
N: nevabuselik--sarki--duyek--elbet_gonullerde--sadettin_kaynak
N: makam= nevabuselik
N: form= sarki
N: usul= duyek = 8/4
M: 8/4
L: 1/16
K: C _1/4B ^f  
Q: 1/4=240
%%MIDI tuningsystem comma53
z4 d2 d2 d4 c4  | d3c d2 e2 d2 e2 d2 c2  | \
w:   |   | 
z4 c2 c2 c4 B4  | c3B c2 d2 c2 d2 c2 B2  | 
w:   |   | 
z4 f4 g4 e4  | d2 a2 =f2 g2 e2 f2 d4  | \
w:   |   | 
B2 c2 B2 d2 c2 B2 B2 A2  | A12 z4  | 
w:   |   | 
z4 d2 d2 d4 c4  | d3c d2 e2 d2 e2 d2 c2  | \
w:   |   | 
z4 c2 c2 c4 B4  | c3B c2 d2 c2 d2 c2 B2  | 
w:   |   | 
z4 f4 g4 e4  | d2 a2 =f2 g2 e2 f2 d4  | \
w:   |   | 
B2 c2 B2 d2 c2 B2 B2 A2  | A12 z4  | 
w:   |   | 
z4 d4 d4 d2 e2  | c4 (3B2A2B2 d4 B2 A2  | \
w:  El bet gö  |  nül *  *  *  ler  | 
A8 z4 (3d2c2d2  | (3c2B2c2 (3c2A2B2 A4 z4  | 
w:  de  |   | 
c2 d14  | d4 =f4 e4 d4  | c4 B2 A2 f4 (3e2d2e2  | \
w:  sa bah  |   |  *  *  *  o la  | 
d12 z4  | e2 =f4 fe d4 z4  | 
w:  cak  |  SAZ  | 
d2 e4 ed c4 z4  | B2 c2 B2 d2 c2 B2 B2 A2  | \
w:   |   | 
A8 z8  | z4 d4 d4 d2 e2  | 
w:   |  El bet gö  | 
c4 (3B2A2B2 d4 B2 A2  | A8 z4 (3d2c2d2  | \
w:  nül *  *  *  ler  |  de  | 
(3c2B2c2 (3c2A2B2 A4 z4  | c2 d14  | 
w:   |  sa bah  | 
d4 =f4 e4 d4  | c4 B2 A2 f4 (3e2d2e2  | \
w:   |  *  *  *  o la  | 
d12 z4  | e2 =f4 fe d4 z4  | d2 e4 ed c4 z4  | 
w:  cak  |  SAZ  |   | 
d2 =f2 e2 d2 c2 B2 A2 G2  | d12 z4  | \
w:   |   | 
z4 A4 B4 c4  | d2 e2 d2 e2 d2 c2 c2 =B2  | 
w:  Bir gün ağ  |  la *  *  *  yan  | 
c8 (3B2A2B2 A4  | c2 d4 c2 B3A G4  | \
w:  lar  |   | 
A2 ^A4 A8 A=A  | A4 B4 c4 d4  | e4 d2 c2 c2 B2 B2 A2  | 
w:  fe rah  |   |  *  *  *  bu *  la  | 
A12 z4  | z4 A4 B4 c4  | d2 e2 d2 e2 d2 c2 c2 =B2  | \
w:  cak  |  Bir gün ağ  |  la *  *  *  yan  | 
c8 (3B2A2B2 A4  | c2 d4 c2 B3A G4  | 
w:  lar  |   | 
A2 ^A4 A8 A=A  | A4 B4 c4 d4  | e4 d2 c2 c2 B2 B2 A2  | \
w:  fe rah  |   |  *  *  *  bu *  la  | 
A12 z4  | =B2 c4 cB c4 z4  | 
w:  cak  |  U nut ma ki  | 
=B2 A6 e8  | z4 d2 =f2 e2 d2 d2 =B2  | \
w:  be nim sin  |  Bi ri cik *  sev  | 
c2 =B2 A2 ^G2 A8  | =B2 c4 cB c4 z4  | 
w:  gi *  lim *  sin  |  U nut ma ki  | 
=B2 A6 e8  | z4 d2 =f2 e2 d2 d2 =B2  | \
w:  be nim sin  |  Bi ri cik *  sev  | 
c2 =B2 A2 ^G2 A8  | |


